gtk-icons/Papirus-GTK/16x16/mimetypes/application-pdf.svg

<?xml version="1.0" encoding="UTF-8" standalone="no"?>
<svg
   xmlns:dc="http://purl.org/dc/elements/1.1/"
   xmlns:cc="http://creativecommons.org/ns#"
   xmlns:rdf="http://www.w3.org/1999/02/22-rdf-syntax-ns#"
   xmlns:svg="http://www.w3.org/2000/svg"
   xmlns="http://www.w3.org/2000/svg"
   xmlns:sodipodi="http://sodipodi.sourceforge.net/DTD/sodipodi-0.dtd"
   xmlns:inkscape="http://www.inkscape.org/namespaces/inkscape"
   width="16px"
   height="16px"
   viewBox="0 0 16 16"
   version="1.1"
   id="svg2"
   inkscape:version="0.91 r"
   sodipodi:docname="application-pdf.svg">
  <metadata
     id="metadata17">
    <rdf:RDF>
      <cc:Work
         rdf:about="">
        <dc:format>image/svg+xml</dc:format>
        <dc:type
           rdf:resource="http://purl.org/dc/dcmitype/StillImage" />
      </cc:Work>
    </rdf:RDF>
  </metadata>
  <defs
     id="defs15" />
  <sodipodi:namedview
     pagecolor="#ffffff"
     bordercolor="#666666"
     borderopacity="1"
     objecttolerance="10"
     gridtolerance="10"
     guidetolerance="10"
     inkscape:pageopacity="0"
     inkscape:pageshadow="2"
     inkscape:window-width="1535"
     inkscape:window-height="876"
     id="namedview13"
     showgrid="false"
     inkscape:zoom="14.75"
     inkscape:cx="-4.0338983"
     inkscape:cy="8"
     inkscape:window-x="65"
     inkscape:window-y="24"
     inkscape:window-maximized="1"
     inkscape:current-layer="svg2" />
  <g
     id="surface1"
     transform="matrix(1.2,0,0,1.2,-1.6,-1.1)">
    <path
       style="fill:#bf352e;fill-opacity:1;fill-rule:nonzero;stroke:none"
       d="M 3.625,1.75 C 3.277344,1.75 3,2.027344 3,2.375 l 0,11.25 c 0,0.347656 0.277344,0.625 0.625,0.625 l 8.75,0 C 12.722656,14.25 13,13.972656 13,13.625 L 13,5.5 9.5625,5.1875 9.25,1.75 Z m 0,0"
       id="path5"
       inkscape:connector-curvature="0" />
    <path
       style="fill:#f36861;fill-opacity:1;fill-rule:nonzero;stroke:none"
       d="m 9.25,1.75 0,3.125 C 9.25,5.21875 9.53125,5.5 9.875,5.5 L 13,5.5 Z m 0,0"
       id="path7"
       inkscape:connector-curvature="0" />
    <path
       style="fill:#ffffff;fill-opacity:1;fill-rule:nonzero;stroke:none"
       d="m 7.492188,6.140625 c -0.140626,0 -0.277344,0.070313 -0.308594,0.1875 C 7.0625,6.773438 7.195312,7.464844 7.421875,8.324219 L 7.355469,8.492188 C 7.183594,8.914062 6.964844,9.332031 6.773438,9.707031 5.988281,11.242188 5.378906,12.074219 4.972656,12.128906 l -0.00391,-0.01563 c -0.00781,-0.191406 0.34375,-0.6875 0.824219,-1.078125 0.050781,-0.04297 0.265625,-0.246094 0.265625,-0.246094 0,0 -0.289063,0.152344 -0.355469,0.191407 -0.597652,0.355474 -0.898433,0.714848 -0.945309,0.95313 C 4.742188,12.007812 4.75,12.09375 4.8125,12.128906 l 0.15625,0.07813 C 5.386719,12.414062 5.898438,11.867188 6.582031,10.667969 7.277344,10.4375 8.148438,10.222656 8.9375,10.109375 c 0.707031,0.402344 1.519531,0.59375 1.832031,0.511719 0.05859,-0.01563 0.121094,-0.0625 0.152344,-0.105469 0.02344,-0.03906 0.05859,-0.195313 0.05859,-0.195313 0,0 -0.05859,0.07813 -0.105469,0.101563 -0.199219,0.09375 -0.820312,-0.0625 -1.460938,-0.375 0.554688,-0.058594 1.015626,-0.0625 1.261719,0.01563 0.3125,0.101562 0.3125,0.203125 0.308594,0.226562 C 10.988281,10.269531 11,10.203125 11,10.171875 10.992188,10.097656 10.96875,10.03125 10.914062,9.976562 10.796875,9.859375 10.511719,9.804688 10.121094,9.796875 9.828125,9.796875 9.476562,9.820312 9.09375,9.875 8.921875,9.773438 8.734375,9.664062 8.589844,9.527344 8.21875,9.179688 7.90625,8.699219 7.714844,8.160156 7.726562,8.109375 7.738281,8.058594 7.75,8.007812 7.804688,7.765625 7.84375,6.96875 7.84375,6.96875 c 0,0 -0.152344,0.597656 -0.175781,0.6875 C 7.652344,7.714844 7.632812,7.777344 7.609375,7.839844 7.492188,7.429688 7.433594,7.027344 7.433594,6.726562 c 0,-0.085937 0.00781,-0.253906 0.03125,-0.382812 C 7.476562,6.25 7.511719,6.199219 7.546875,6.175781 c 0.070313,0.015625 0.148437,0.125 0.226563,0.304688 0.070312,0.152343 0.066406,0.332031 0.066406,0.445312 0,0 0.078125,-0.277343 0.058594,-0.4375 C 7.886719,6.390625 7.796875,6.140625 7.597656,6.140625 Z M 7.5625,8.632812 C 7.765625,9.042969 8.046875,9.433594 8.417969,9.746094 8.5,9.816406 8.585938,9.882812 8.675781,9.945312 c -0.671875,0.125 -1.375,0.300782 -2.03125,0.574219 0.121094,-0.210937 0.25,-0.4375 0.378907,-0.6875 C 7.277344,9.351562 7.433594,8.984375 7.5625,8.632812 Z m 0,0"
       id="path9"
       inkscape:connector-curvature="0" />
    <path
       style="fill:#ffffff;fill-opacity:0.10196102;fill-rule:nonzero;stroke:none"
       d="M 3.625,1.75 C 3.277344,1.75 3,2.027344 3,2.375 l 0,0.5 C 3,2.527344 3.277344,2.25 3.625,2.25 l 5.625,0 0,-0.5 z m 0,0"
       id="path11"
       inkscape:connector-curvature="0" />
  </g>
</svg>

<?xml version="1.0" encoding="UTF-8" standalone="no"?>
<svg id="svg2" xmlns:rdf="http://www.w3.org/1999/02/22-rdf-syntax-ns#" xmlns="http://www.w3.org/2000/svg" height="16px" width="16px" version="1.1" xmlns:cc="http://creativecommons.org/ns#" xmlns:dc="http://purl.org/dc/elements/1.1/" viewBox="0 0 16 16">
 <metadata id="metadata17">
  <rdf:RDF>
   <cc:Work rdf:about="">
    <dc:format>image/svg+xml</dc:format>
    <dc:type rdf:resource="http://purl.org/dc/dcmitype/StillImage"/>
   </cc:Work>
  </rdf:RDF>
 </metadata>
 <g id="surface1" transform="matrix(1.2,0,0,1.2,-1.6,-1.1)">
  <path id="path5" d="m3.625 1.75c-0.3477 0-0.625 0.2773-0.625 0.625v11.25c0 0.34766 0.27734 0.625 0.625 0.625h8.75c0.348 0 0.625-0.277 0.625-0.625v-8.125l-3.4375-0.3125-0.3125-3.4375z" fill="#bf352e"/>
  <path id="path7" d="m9.25 1.75v3.125c0 0.3438 0.2812 0.625 0.625 0.625h3.125z" fill="#f36861"/>
  <path id="path9" d="m7.4922 6.1406c-0.14063 0-0.27734 0.070313-0.30859 0.1875-0.1211 0.4453 0.0117 1.1367 0.2383 1.9961l-0.0664 0.168c-0.1719 0.4219-0.3907 0.8398-0.5821 1.2148-0.7851 1.535-1.3945 2.367-1.8007 2.422l-0.00391-0.01563c-0.00781-0.19141 0.34375-0.6875 0.82422-1.0781 0.050781-0.04297 0.26562-0.24609 0.26562-0.24609s-0.28906 0.15234-0.35547 0.19141c-0.59765 0.35547-0.89843 0.71485-0.94531 0.95313-0.0156 0.075-0.0078 0.161 0.0547 0.196l0.15625 0.07813c0.4179 0.207 0.9296-0.34 1.6132-1.539 0.6953-0.23 1.5664-0.445 2.3555-0.559 0.70703 0.40234 1.5195 0.59375 1.832 0.51172 0.05859-0.01563 0.12109-0.0625 0.15234-0.10547 0.02344-0.03906 0.05859-0.19531 0.05859-0.19531s-0.05859 0.07813-0.10547 0.10156c-0.19922 0.09375-0.82031-0.0625-1.4609-0.375 0.55469-0.058594 1.0156-0.0625 1.2617 0.01563 0.3125 0.10156 0.3125 0.20312 0.30859 0.22656 0.004-0.019 0.016-0.086 0.016-0.117-0.008-0.074-0.031-0.141-0.086-0.1954-0.117-0.1172-0.402-0.1719-0.793-0.1797-0.2929 0-0.6444 0.0234-1.0272 0.0781-0.1719-0.1016-0.3594-0.2109-0.504-0.3477-0.371-0.3476-0.6836-0.8281-0.875-1.3671 0.0118-0.0508 0.0235-0.1016 0.0352-0.1524 0.0547-0.2422 0.0938-1.039 0.0938-1.039s-0.15234 0.59766-0.17578 0.6875c-0.0157 0.0585-0.0352 0.121-0.0586 0.1835-0.1172-0.4101-0.1758-0.8125-0.1758-1.1132 0-0.085937 0.00781-0.25391 0.03125-0.38281 0.0118-0.0938 0.0469-0.1446 0.0821-0.168 0.070313 0.015625 0.14844 0.125 0.22656 0.30469 0.070312 0.15234 0.066406 0.33203 0.066406 0.44531 0 0 0.078125-0.27734 0.058594-0.4375-0.0118-0.0977-0.1016-0.3477-0.3008-0.3477zm0.0703 2.4922c0.2031 0.4102 0.4844 0.8008 0.8555 1.1133 0.082 0.0703 0.1679 0.1367 0.2578 0.1992-0.67188 0.125-1.375 0.30078-2.0312 0.57422 0.12109-0.21094 0.25-0.4375 0.37891-0.6875 0.2538-0.4804 0.4101-0.8476 0.539-1.1992z" fill="#fff"/>
  <path id="path11" d="m3.625 1.75c-0.3477 0-0.625 0.2773-0.625 0.625v0.5c0-0.3477 0.2773-0.625 0.625-0.625h5.625v-0.5z" fill-opacity=".10196" fill="#fff"/>
 </g>
</svg>
